X:4615
L:1/8
M:6/8
K:C
 G |: c2 c Gce | g2 g g2 e | gfd fec | dfe d2 G | c2 c Gce | g2 g g2 e | d2 a g2 f | e2 c c2 :: 
 B/c/ | d2 G G2 e | d2 G G2 g | ^fed def | dgb d2 B/c/ | d2 G G2 e | d2 G G2 g | ^fed def | 
 gde =fAB :|

